RCanvas/th1_twoscales.svg

<svg width="1200" height="800" viewBox="0 0 1200 800" preserveAspectRatio="none" xmlns="http://www.w3.org/2000/svg">
 <path d="M0,0H1200V800H0Z" style="fill: white;"></path>
 <g>
  <g transform="translate(84,96)">
   <path d="M0,0H1056V608H0Z" style="fill: white; stroke: black; stroke-width: 1;"></path>
   <svg x="0" y="0" overflow="hidden" width="1056" height="608" viewBox="0 0 1056 608">
    <g>
     <path d="M0,604h21v-3h11v-9h10v-9h11v18h10v-13h21v-7h11v-2h11v2h10v-4h11v-16h10v5h21v-27h11v20h11v-38h10v-5h11v-9h10v-4h11v-22h10v-12h11v-22h10v-18h11v-29h11v18h10v-2h11v-41h10v-56h11v7h10v-29h11v9h10v-63h11v23h11v-38h10v-7h11v-11h10v-25h11v29h10v-42h11v-2h11v-63h10v-16h11v5h10v4h21v-27h11v43h10v-38h11v-49h11v100h10v-58h11v34h10v-20h11v18h10v51h11v-85h10v49h11v11h11v52h10v-58h11v94h10v44h11v-40h10v49h11v-18h11v74h10v25h11v2h10v-31h11v62h10v-13h11v60h10v-20h11v54h11v-2h10v-21h11v50h10v-23h11v50h10v15h11v-11h10v4h11v30h11v-14h10v31h11v-6h10v2h11v9h10v-5h11v18h11v5h10v-11h11v2h10v2h11v7h10v2h11v2h10v3h11" style="stroke-linejoin: miter; stroke: #000099; stroke-width: 1; fill: none;"></path>
    </g>
    <g>
     <path d="M0,608h32v-1h21v-1h21v-1h21v-1h11v-1h10v-1h11v-1h10v-1h11v-1h10v-2h11v-1h11v-2h10v-3h11v-2h10v-3h11v-3h10v-4h11v-4h10v-5h11v-5h11v-5h10v-5h11v-6h10v-8h11v-7h10v-8h11v-8h10v-9h11v-9h11v-10h10v-10h11v-11h10v-10h11v-11h10v-11h11v-11h11v-13h10v-14h11v-13h10v-13h11v-13h10v-14h11v-13h10v-14h11v-15h11v-12h10v-14h11v-13h10v-14h11v-13h10v-12h11v-14h10v-13h11v-12h11v-11h10v-13h11v-10h10v-9h11v-10h10v-9h11v-9h11v-7h10v-7h11v-6h10v-8h11v-6h10v-6h11v-4h10v-5h11v-4h11v-4h10v-4h11v-3h10v-4h11v-2h10v-2h11v-2h10v-2h11v-2h11v-1h10v-1h11v-1h10v-1h11v-1h10v-1h22v-1h21v-1h21v-1h42" style="stroke-linejoin: miter; stroke: #FF0000; stroke-width: 1; fill: none;"></path>
    </g>
   </svg>
   <g>
    <g transform="translate(0,608)">
     <path d="M0,0h1056M0,-24v24m35,-12v12m35,-12v12m36,-12v12m35,-12v12m35,-24v24m35,-12v12m35,-12v12m36,-12v12m35,-12v12m35,-24v24m35,-12v12m35,-12v12m36,-12v12m35,-12v12m35,-24v24m35,-12v12m35,-12v12m36,-12v12m35,-12v12m35,-24v24m35,-12v12m35,-12v12m36,-12v12m35,-12v12m35,-24v24m35,-12v12m35,-12v12m36,-12v12m35,-12v12m35,-24v24" style="stroke: black; stroke-width: 1;"></path>
     <g font-family="Arial" font-size="28" space="preserve" fill="black" text-anchor="middle">
      <text dy=".8em" transform="translate(0,6)">
       -3
      </text>
      <text dy=".8em" transform="translate(176,6)">
       -2
      </text>
      <text dy=".8em" transform="translate(352,6)">
       -1
      </text>
      <text dy=".8em" transform="translate(528,6)">
       0
      </text>
      <text dy=".8em" transform="translate(704,6)">
       1
      </text>
      <text dy=".8em" transform="translate(880,6)">
       2
      </text>
      <text dy=".8em" transform="translate(1056,6)">
       3
      </text>
     </g>
    </g>
    <g>
     <path d="M0,0v608M36,608h-36m18,-22h-18m18,-23h-18m18,-22h-18m18,-22h-18m36,-23h-36m18,-22h-18m18,-23h-18m18,-22h-18m18,-22h-18m36,-23h-36m18,-22h-18m18,-22h-18m18,-23h-18m18,-22h-18m36,-22h-36m18,-23h-18m18,-22h-18m18,-23h-18m18,-22h-18m36,-22h-36m18,-23h-18m18,-22h-18m18,-22h-18m18,-23h-18m36,-22h-36m18,-22h-18m18,-23h-18" style="stroke: black; stroke-width: 1;"></path>
     <g font-family="Arial" font-size="28" space="preserve" fill="black" text-anchor="end">
      <text dy=".4em" transform="translate(-4,608)">
       0
      </text>
      <text dy=".4em" transform="translate(-4,496)">
       50
      </text>
      <text dy=".4em" transform="translate(-4,384)">
       100
      </text>
      <text dy=".4em" transform="translate(-4,273)">
       150
      </text>
      <text dy=".4em" transform="translate(-4,161)">
       200
      </text>
      <text dy=".4em" transform="translate(-4,49)">
       250
      </text>
     </g>
    </g>
    <g transform="translate(1056)">
     <path d="M0,0v608M0,608h-36m36,-12h-18m18,-11h-18m18,-12h-18m18,-11h-18m18,-12h-36m36,-12h-18m18,-11h-18m18,-12h-18m18,-11h-18m18,-12h-36m36,-12h-18m18,-11h-18m18,-12h-18m18,-12h-18m18,-11h-36m36,-12h-18m18,-11h-18m18,-12h-18m18,-12h-18m18,-11h-36m36,-12h-18m18,-11h-18m18,-12h-18m18,-12h-18m18,-11h-36m36,-12h-18m18,-11h-18m18,-12h-18m18,-12h-18m18,-11h-36m36,-12h-18m18,-12h-18m18,-11h-18m18,-12h-18m18,-11h-36m36,-12h-18m18,-12h-18m18,-11h-18m18,-12h-18m18,-11h-36m36,-12h-18m18,-12h-18m18,-11h-18m18,-12h-18m18,-11h-36m36,-12h-18m18,-12h-18m18,-11h-18m18,-12h-18m18,-12h-36m36,-11h-18m18,-12h-18" style="stroke: #FF0000; stroke-width: 1;"></path>
     <g font-family="Arial" font-size="28" space="preserve" fill="#FF0000" text-anchor="start">
      <text dy=".4em" transform="translate(4,608)">
       0
      </text>
      <text dy=".4em" transform="translate(4,550)">
       1000
      </text>
      <text dy=".4em" transform="translate(4,492)">
       2000
      </text>
      <text dy=".4em" transform="translate(4,434)">
       3000
      </text>
      <text dy=".4em" transform="translate(4,376)">
       4000
      </text>
      <text dy=".4em" transform="translate(4,318)">
       5000
      </text>
      <text dy=".4em" transform="translate(4,260)">
       6000
      </text>
      <text dy=".4em" transform="translate(4,202)">
       7000
      </text>
      <text dy=".4em" transform="translate(4,144)">
       8000
      </text>
      <text dy=".4em" transform="translate(4,86)">
       9000
      </text>
      <text dy=".4em" transform="translate(4,27)">
       10000
      </text>
     </g>
    </g>
   </g>
  </g>
  <g transform="translate(72,4)" font-family="Arial" font-size="40" space="preserve">
   <text fill="black" text-anchor="middle" dy=".8em" transform="translate(528)">
    Example histogram
   </text>
  </g>
 </g>
</svg>

<svg width="1200" height="800" viewBox="0 0 1200 800" preserveAspectRatio="none" xmlns="http://www.w3.org/2000/svg">
 <path d="M0,0H1200V800H0Z" style="fill: white;"></path>
 <g>
  <g transform="translate(84,96)">
   <path d="M0,0H1056V608H0Z" style="fill: white; stroke: black; stroke-width: 1;"></path>
   <svg x="0" y="0" overflow="hidden" width="1056" height="608" viewBox="0 0 1056 608">
    <g>
     <path d="M0,604h21v-3h11v-9h10v-9h11v18h10v-13h21v-7h11v-2h11v2h10v-4h11v-16h10v5h21v-27h11v20h11v-38h10v-5h11v-9h10v-4h11v-22h10v-12h11v-22h10v-18h11v-29h11v18h10v-2h11v-41h10v-56h11v7h10v-29h11v9h10v-63h11v23h11v-38h10v-7h11v-11h10v-25h11v29h10v-42h11v-2h11v-63h10v-16h11v5h10v4h21v-27h11v43h10v-38h11v-49h11v100h10v-58h11v34h10v-20h11v18h10v51h11v-85h10v49h11v11h11v52h10v-58h11v94h10v44h11v-40h10v49h11v-18h11v74h10v25h11v2h10v-31h11v62h10v-13h11v60h10v-20h11v54h11v-2h10v-21h11v50h10v-23h11v50h10v15h11v-11h10v4h11v30h11v-14h10v31h11v-6h10v2h11v9h10v-5h11v18h11v5h10v-11h11v2h10v2h11v7h10v2h11v2h10v3h11" style="stroke-linejoin: miter; stroke: #000099; stroke-width: 1; fill: none;"></path>
    </g>
    <g>
     <path d="M0,608h32v-1h21v-1h21v-1h21v-1h11v-1h10v-1h11v-1h10v-1h11v-1h10v-2h11v-1h11v-2h10v-3h11v-2h10v-3h11v-3h10v-4h11v-4h10v-5h11v-5h11v-5h10v-5h11v-6h10v-8h11v-7h10v-8h11v-8h10v-9h11v-9h11v-10h10v-10h11v-11h10v-10h11v-11h10v-11h11v-11h11v-13h10v-14h11v-13h10v-13h11v-13h10v-14h11v-13h10v-14h11v-15h11v-12h10v-14h11v-13h10v-14h11v-13h10v-12h11v-14h10v-13h11v-12h11v-11h10v-13h11v-10h10v-9h11v-10h10v-9h11v-9h11v-7h10v-7h11v-6h10v-8h11v-6h10v-6h11v-4h10v-5h11v-4h11v-4h10v-4h11v-3h10v-4h11v-2h10v-2h11v-2h10v-2h11v-2h11v-1h10v-1h11v-1h10v-1h11v-1h10v-1h22v-1h21v-1h21v-1h42" style="stroke-linejoin: miter; stroke: #FF0000; stroke-width: 1; fill: none;"></path>
    </g>
   </svg>
   <g>
    <g transform="translate(0,608)">
     <path d="M0,0h1056M0,-24V0M35,-12V0M70,-12V0M106,-12V0M141,-12V0M176,-24V0M211,-12V0M246,-12V0M282,-12V0M317,-12V0M352,-24V0M387,-12V0M422,-12V0M458,-12V0M493,-12V0M528,-24V0M563,-12V0M598,-12V0M634,-12V0M669,-12V0M704,-24V0M739,-12V0M774,-12V0M810,-12V0M845,-12V0M880,-24V0M915,-12V0M950,-12V0M986,-12V0M1021,-12V0M1056,-24V0" style="stroke: black; stroke-width: 1;"></path>
     <g font-family="Arial" font-size="28" space="preserve" fill="black" text-anchor="middle">
      <text dy=".8em" transform="translate(0,6)">
       -3
      </text>
      <text dy=".8em" transform="translate(176,6)">
       -2
      </text>
      <text dy=".8em" transform="translate(352,6)">
       -1
      </text>
      <text dy=".8em" transform="translate(528,6)">
       0
      </text>
      <text dy=".8em" transform="translate(704,6)">
       1
      </text>
      <text dy=".8em" transform="translate(880,6)">
       2
      </text>
      <text dy=".8em" transform="translate(1056,6)">
       3
      </text>
     </g>
    </g>
    <g>
     <path d="M0,0v608M36,608H0M18,586H0M18,563H0M18,541H0M18,519H0M36,496H0M18,474H0M18,451H0M18,429H0M18,407H0M36,384H0M18,362H0M18,340H0M18,317H0M18,295H0M36,273H0M18,250H0M18,228H0M18,205H0M18,183H0M36,161H0M18,138H0M18,116H0M18,94H0M18,71H0M36,49H0M18,27H0M18,4H0" style="stroke: black; stroke-width: 1;"></path>
     <g font-family="Arial" font-size="28" space="preserve" fill="black" text-anchor="end">
      <text dy=".4em" transform="translate(-4,608)">
       0
      </text>
      <text dy=".4em" transform="translate(-4,496)">
       50
      </text>
      <text dy=".4em" transform="translate(-4,384)">
       100
      </text>
      <text dy=".4em" transform="translate(-4,273)">
       150
      </text>
      <text dy=".4em" transform="translate(-4,161)">
       200
      </text>
      <text dy=".4em" transform="translate(-4,49)">
       250
      </text>
     </g>
    </g>
    <g transform="translate(1056)">
     <path d="M0,0v608M0,608H-36M0,596H-18M0,585H-18M0,573H-18M0,562H-18M0,550H-36M0,538H-18M0,527H-18M0,515H-18M0,504H-18M0,492H-36M0,480H-18M0,469H-18M0,457H-18M0,445H-18M0,434H-36M0,422H-18M0,411H-18M0,399H-18M0,387H-18M0,376H-36M0,364H-18M0,353H-18M0,341H-18M0,329H-18M0,318H-36M0,306H-18M0,295H-18M0,283H-18M0,271H-18M0,260H-36M0,248H-18M0,236H-18M0,225H-18M0,213H-18M0,202H-36M0,190H-18M0,178H-18M0,167H-18M0,155H-18M0,144H-36M0,132H-18M0,120H-18M0,109H-18M0,97H-18M0,86H-36M0,74H-18M0,62H-18M0,51H-18M0,39H-18M0,27H-36M0,16H-18M0,4H-18" style="stroke: #FF0000; stroke-width: 1;"></path>
     <g font-family="Arial" font-size="28" space="preserve" fill="#FF0000" text-anchor="start">
      <text dy=".4em" transform="translate(4,608)">
       0
      </text>
      <text dy=".4em" transform="translate(4,550)">
       1000
      </text>
      <text dy=".4em" transform="translate(4,492)">
       2000
      </text>
      <text dy=".4em" transform="translate(4,434)">
       3000
      </text>
      <text dy=".4em" transform="translate(4,376)">
       4000
      </text>
      <text dy=".4em" transform="translate(4,318)">
       5000
      </text>
      <text dy=".4em" transform="translate(4,260)">
       6000
      </text>
      <text dy=".4em" transform="translate(4,202)">
       7000
      </text>
      <text dy=".4em" transform="translate(4,144)">
       8000
      </text>
      <text dy=".4em" transform="translate(4,86)">
       9000
      </text>
      <text dy=".4em" transform="translate(4,27)">
       10000
      </text>
     </g>
    </g>
   </g>
  </g>
  <g transform="translate(72,4)" font-family="Arial" font-size="40" space="preserve">
   <text fill="black" text-anchor="middle" dy=".8em" transform="translate(528)">
    Example histogram
   </text>
  </g>
 </g>
</svg>
